resources/haticons/SVG/angularuniversal.svg

<!-- Generated by IcoMoon.io -->
<svg version="1.1" xmlns="http://www.w3.org/2000/svg" width="24" height="24" viewBox="0 0 24 24">
<title>angularuniversal</title>
<path fill="#00acc1" d="M15.6 11.28v1.44c0 0.265-0.215 0.48-0.48 0.48v0h-6.24c-0.265 0-0.48-0.215-0.48-0.48v0-1.44c0-0.265 0.215-0.48 0.48-0.48v0h6.24c0.265 0 0.48 0.215 0.48 0.48v0zM12 15.6c-0.663 0-1.2 0.537-1.2 1.2s0.537 1.2 1.2 1.2v0c0.663 0 1.2-0.537 1.2-1.2s-0.537-1.2-1.2-1.2v0zM15.12 7.2h-6.24c-0.265 0-0.48 0.215-0.48 0.48v0 1.44c0 0.265 0.215 0.48 0.48 0.48h6.24c0.265 0 0.48-0.215 0.48-0.48v0-1.44c0-0.265-0.215-0.48-0.48-0.48v0zM23.16 3.996l-1.716 14.736-9.468 5.268-9.456-5.268-1.68-14.736 11.136-3.996zM16.8 6.24c0-0.795-0.645-1.44-1.44-1.44v0h-6.72c-0.795 0-1.44 0.645-1.44 1.44v0 11.52c0 0.795 0.645 1.44 1.44 1.44h6.72c0.795 0 1.44-0.645 1.44-1.44v0z"></path>
</svg>

<svg xmlns="http://www.w3.org/2000/svg" width="24" height="24"><path fill="#00acc1" d="M15.6 11.28v1.44a.48.48 0 0 1-.48.48H8.88a.48.48 0 0 1-.48-.48v-1.44a.48.48 0 0 1 .48-.48h6.24a.48.48 0 0 1 .48.48zM12 15.6a1.2 1.2 0 1 0 0 2.4 1.2 1.2 0 1 0 0-2.4zm3.12-8.4H8.88a.48.48 0 0 0-.48.48v1.44c0 .265.215.48.48.48h6.24a.48.48 0 0 0 .48-.48V7.68a.48.48 0 0 0-.48-.48zm8.04-3.204l-1.716 14.736L11.976 24 2.52 18.732.84 3.996 11.976 0zM16.8 6.24a1.44 1.44 0 0 0-1.44-1.44H8.64A1.44 1.44 0 0 0 7.2 6.24v11.52c0 .795.645 1.44 1.44 1.44h6.72a1.44 1.44 0 0 0 1.44-1.44z"/></svg>
